X: 134
T: Those Hills I Trod Upon
C: Teton Sioux band 1911-1914
N: Derived from sioux132b.krn
O: South Dakota, U.S.A.
N: Teton Sioux Music by Frances Densmore, 1918
Z: transcribed to **kern format by Craig Sapp
L: 1/8
M: 2/4
Q: 1/4=58
K: Bb clef=bass
%%linebreak <none>
D,3/ D,/ [I:setbarnb 1]| 
D> D C3/ D/ ||  
[M:3/4]B,> G,(B,2G,3/) B,/ | 
B,> D (D< B,) G,3/ G,/ | 
F,> D, F,> F, D,3/ G,/ ||  
[M:2/4]G,> B, (B,/ G,3/) ||  
[M:3/4]F,> F, F,> D, D,3/ D,/ ||  
[M:2/4]D, D, D,3/ D,/ | 
D,3F, ||  
[M:3/4]D,> F, F,> D, D,3/ D,/ ||  
[M:2/4]D,4 | 
D,4 |]  



